Sources/FrostedUI/Resources/Icons.xcassets/paperAirplaneFilledUp16.imageset/paper-airplane-filled-up-16.svg

<svg width="16" height="16" viewBox="0 0 16 16" fill="none" xmlns="http://www.w3.org/2000/svg" data-fui-icon="true">
  <path
    d="M7.37466 0.381621L0.0714624 15.0248C-0.192736 15.5562 0.318887 16.143 0.897607 15.9686L6.6932 13.9538C6.96369 13.8717 7.1566 13.6378 7.17966 13.3608L8.00161 6.47525L8.82356 13.3608C8.84663 13.6378 9.03954 13.8717 9.31002 13.9538L15.1035 15.9686C15.6822 16.143 16.1939 15.5582 15.9276 15.0248L8.62437 0.379572C8.49017 0.110795 8.29936 0 7.99952 0C7.69967 0 7.50886 0.108744 7.37466 0.379572V0.381621Z"
    fill="currentColor"
  />
</svg>

<svg xmlns="http://www.w3.org/2000/svg" width="16" height="16" fill="none" data-fui-icon="true" viewBox="0 0 16 16"><path fill="currentColor" d="M7.375.382.07 15.025c-.264.531.248 1.118.827.944l5.795-2.015a.68.68 0 0 0 .487-.593l.822-6.886.822 6.886c.023.277.216.51.486.593l5.794 2.015c.578.174 1.09-.41.824-.944L8.624.38C8.49.11 8.3 0 8 0c-.3 0-.491.109-.625.38z"/></svg>
